**kern	**kern	**dynam
*part1	*part1	*part1
*staff2	*staff1	*
*I"Piano	*	*
*clefF4	*clefG2	*
*k[f#c#]	*k[f#c#]	*
=1	=1	=1
*^	*^	*
!	!	!	!	!LO:DY:a
2B	2D	2.g	2.e	<
4A	4C#	.	.	.
!	!	!	!	!LO:DY:a
4G	4BB	4b	4e	[ f
=	=	=	=	=
2c#	2AA	2ee^^	2g	.
*v	*v	*	*	*
2D	2b^^	2e 2g	.
=	=	=	=
*^	*	*	*
2.A	2.C#	2.ee^^	2.g	.
!	!	!	!	!LO:DY:a
4c#	4c#	4a	4e 4g	ff
*v	*v	*	*	*
=	=	=	=
2d	2b	2d 2f#	.
2cn	2a	2d 2f#	.
=	=	=	=
2.B	2.dd	2.d 2.g	.
*^	*	*	*
!	!	!LO:TX:a:i:t=rall. molto	!	!
4G	4BB	4d	4d	pp
=	=	=	=	=
2A	2AA	2f#	2c#X	>
2G	2AA	4e	2c#	.
.	.	4a	.	.
=	=	=	=	=
2.F#;	2.D	2.a;	2.d	]
4ryy	4ryy	4ryy	4ryy	.
*v	*v	*	*	*
*	*v	*v	*
==	==	==
*-	*-	*-
!!!system-decoration: {(s1,s2)}
